symbols/web/crop_landscape/materialsymbolsoutlined/crop_landscape_wght300fill1_24px.svg

<svg xmlns="http://www.w3.org/2000/svg" height="24" width="24"><path d="M4.3 19.5q-.75 0-1.275-.525Q2.5 18.45 2.5 17.7V6.3q0-.75.525-1.275Q3.55 4.5 4.3 4.5h15.4q.75 0 1.275.525.525.525.525 1.275v11.4q0 .75-.525 1.275-.525.525-1.275.525Z"/></svg>

<svg xmlns="http://www.w3.org/2000/svg" height="24" width="24"><path d="M4.3 19.5Q3.55 19.5 3.025 18.975Q2.5 18.45 2.5 17.7V6.3Q2.5 5.55 3.025 5.025Q3.55 4.5 4.3 4.5H19.7Q20.45 4.5 20.975 5.025Q21.5 5.55 21.5 6.3V17.7Q21.5 18.45 20.975 18.975Q20.45 19.5 19.7 19.5Z"/></svg>
